public/assets/routes_avatar/taxableItems.svg

<?xml version="1.0" encoding="UTF-8"?>
<svg width="60px" height="60px" viewBox="0 0 60 60" version="1.1" xmlns="http://www.w3.org/2000/svg" xmlns:xlink="http://www.w3.org/1999/xlink">
    <!-- Generator: Sketch 49.3 (51167) - http://www.bohemiancoding.com/sketch -->
    <title>系统维护-应税项目</title>
    <desc>Created with Sketch.</desc>
    <defs>
        <path d="M23.154834,2.12104526 C23.154834,2.12104526 23.154834,2.12104526 23.154834,2.12104526 L23.154834,18.5775323 C23.154834,18.5775323 23.154834,18.5775323 23.154834,18.5775323 L2.0422485,18.5775323 C2.0422485,18.5775323 2.0422485,18.5775323 2.0422485,18.5775323 L2.0422485,2.12104526 C2.0422485,2.12104526 2.0422485,2.12104526 2.0422485,2.12104526 L23.154834,2.12104526 Z M23.154834,0.00294181034 L2.0422485,0.00294181034 C0.925744514,0.00294181034 0.0224422913,0.950204741 0.0224422913,2.12104526 L0.0224422913,18.5775323 C0.0224422913,19.7483728 0.925744514,20.6956358 2.0422485,20.6956358 L23.154834,20.6956358 C24.271338,20.6956358 25.1746402,19.7483728 25.1746402,18.5775323 L25.1746402,2.12104526 C25.1746402,0.950204741 24.2685327,0.00294181034 23.154834,0.00294181034 Z M24.1647371,24.9553772 L1.0323454,24.9553772 C0.474093403,24.9553772 0.0224422913,24.4817457 0.0224422913,23.8963254 C0.0224422913,23.3109052 0.474093403,22.8372737 1.0323454,22.8372737 L24.1647371,22.8372737 C24.7229891,22.8372737 25.1746402,23.3109052 25.1746402,23.8963254 C25.1746402,24.4817457 24.7229891,24.9553772 24.1647371,24.9553772 Z" id="path-1"></path>
    </defs>
    <g id="icon" stroke="none" stroke-width="1" fill="none" fill-rule="evenodd">
        <g id="系统维护-应税项目">
            <g id="Group-12">
                <circle id="Oval-Copy" fill="#07D3CF" cx="30" cy="30" r="30"></circle>
                <g id="Group-28" transform="translate(15.000000, 17.000000)">
                    <g id="Shape" fill-rule="nonzero">
                        <use fill="#FFFFFF" fill-rule="evenodd" xlink:href="#path-1"></use>
                        <path stroke="#FFFFFF" stroke-width="1" d="M23.654834,1.62104526 L23.654834,19.0775323 L1.5422485,19.0775323 L1.5422485,1.62104526 L23.654834,1.62104526 Z M23.154834,0.50294181 L2.0422485,0.50294181 C1.20734111,0.50294181 0.522442291,1.22117237 0.522442291,2.12104526 L0.522442291,18.5775323 C0.522442291,19.4774052 1.20734111,20.1956358 2.0422485,20.1956358 L23.154834,20.1956358 C23.9897414,20.1956358 24.6746402,19.4774052 24.6746402,18.5775323 L24.6746402,2.12104526 C24.6746402,1.22228928 23.988018,0.50294181 23.154834,0.50294181 Z M24.1647371,24.4553772 C24.4413925,24.4553772 24.6746402,24.2107781 24.6746402,23.8963254 C24.6746402,23.5818728 24.4413925,23.3372737 24.1647371,23.3372737 L1.0323454,23.3372737 C0.755689996,23.3372737 0.522442291,23.5818728 0.522442291,23.8963254 C0.522442291,24.2107781 0.755689996,24.4553772 1.0323454,24.4553772 L24.1647371,24.4553772 Z"></path>
                    </g>
                    <ellipse id="Oval-8" fill="#07D3CF" cx="23.1818182" cy="19.2758621" rx="6.81818182" ry="6.72413793"></ellipse>
                    <ellipse id="Oval-8" stroke="#FFFFFF" stroke-width="1.5" fill="#07D3CF" cx="23.4545455" cy="19.3793103" rx="5.45454545" ry="5.37931034"></ellipse>
                    <path d="M23.2180451,18.1104037 L23.7765843,18.1104037 C23.6476907,17.7946491 23.5080559,17.5157325 23.3576799,17.2683914 L23.8088077,17.0578883 C23.9645542,17.3210172 24.1149302,17.6157215 24.2653061,17.9420013 L23.9215897,18.1104037 L24.49087,18.1104037 C24.6680988,17.7630736 24.8238453,17.3946933 24.952739,17 L25.4897959,17.1894528 C25.3609023,17.5262577 25.2212675,17.8367497 25.0655209,18.1104037 L25.6294307,18.1104037 L25.6294307,19.9259927 L25.0655209,19.9259927 L25.0655209,21.1890112 C25.0655209,21.2837375 25.0977444,21.3363633 25.1675618,21.3363633 L25.3501611,21.3363633 C25.3931257,21.3363633 25.4307197,21.3047878 25.4522019,21.2416369 C25.4790548,21.1679608 25.4951665,20.9574578 25.5059076,20.6101277 L26,20.7574799 C25.962406,21.278475 25.9033298,21.588967 25.8174006,21.6889559 C25.7314715,21.7836823 25.6079484,21.8310455 25.4414608,21.8310455 L25.0010741,21.8310455 C24.7003222,21.8310455 24.5499463,21.6521179 24.5499463,21.2995253 L24.5499463,19.9259927 L24.2116004,19.9259927 C24.1525242,20.8469437 23.8195489,21.5152909 23.2180451,21.9310345 L22.9172932,21.45214 C23.3791622,21.1521731 23.6423201,20.6417032 23.6960258,19.9259927 L23.2180451,19.9259927 L23.2180451,18.1104037 Z M25.1192266,19.4418356 L25.1192266,18.5945608 L23.7336198,18.5945608 L23.7336198,19.4418356 L25.1192266,19.4418356 Z M21.1450054,18.3945829 L21.8646617,18.3945829 L21.8646617,17.8051743 C21.66058,17.8314871 21.4564984,17.8578 21.2416756,17.8788503 L21.1288937,17.373643 C21.7679914,17.3210172 22.3426423,17.2210282 22.8474758,17.0684135 L23.0461869,17.5736209 C22.8421053,17.6262466 22.6272825,17.6788724 22.4017186,17.720973 L22.4017186,18.3945829 L23.0085929,18.3945829 L23.0085929,18.9261031 L22.4017186,18.9261031 L22.4017186,19.1681817 C22.6433942,19.4102602 22.8850698,19.673389 23.132116,19.9628308 L22.8152524,20.4312001 C22.6541353,20.1575461 22.5198711,19.9365179 22.4017186,19.7575903 L22.4017186,21.862621 L21.8646617,21.862621 L21.8646617,19.8154786 C21.698174,20.2154344 21.4940924,20.5785522 21.2524168,20.9153572 L21,20.2733228 C21.3651987,19.8733669 21.6390977,19.4260479 21.810956,18.9261031 L21.1450054,18.9261031 L21.1450054,18.3945829 Z" id="税" fill="#FFFFFF"></path>
                </g>
            </g>
        </g>
    </g>
</svg>

<svg width="60" height="60" xmlns="http://www.w3.org/2000/svg" xmlns:xlink="http://www.w3.org/1999/xlink"><defs><path d="M23.155 2.121v16.457H2.042V2.12h21.113zm0-2.118H2.042C.926.003.022.95.022 2.12v16.457c0 1.17.904 2.118 2.02 2.118h21.113c1.116 0 2.02-.948 2.02-2.118V2.12c0-1.17-.906-2.118-2.02-2.118zm1.01 24.952H1.032c-.558 0-1.01-.473-1.01-1.059 0-.585.452-1.059 1.01-1.059h23.133c.558 0 1.01.474 1.01 1.06 0 .585-.452 1.058-1.01 1.058z" id="a"/></defs><g fill="none" fill-rule="evenodd"><circle fill="#07D3CF" cx="30" cy="30" r="30"/><g transform="translate(15 17)"><g fill-rule="nonzero"><use fill="#FFF" fill-rule="evenodd" xlink:href="#a"/><path stroke="#FFF" d="M23.655 1.621v17.457H1.542V1.62h22.113zm-.5-1.118H2.042c-.835 0-1.52.718-1.52 1.618v16.457c0 .9.685 1.618 1.52 1.618h21.113c.835 0 1.52-.719 1.52-1.618V2.12c0-.899-.687-1.618-1.52-1.618zm1.01 23.952c.276 0 .51-.244.51-.559 0-.314-.234-.559-.51-.559H1.032c-.276 0-.51.245-.51.56 0 .314.234.558.51.558h23.133z"/></g><ellipse fill="#07D3CF" cx="23.182" cy="19.276" rx="6.818" ry="6.724"/><ellipse stroke="#FFF" stroke-width="1.5" fill="#07D3CF" cx="23.455" cy="19.379" rx="5.455" ry="5.379"/><path d="M23.218 18.11h.559a5.93 5.93 0 0 0-.42-.842l.452-.21c.156.263.306.558.456.884l-.343.168h.569c.177-.347.333-.715.462-1.11l.537.19a6.746 6.746 0 0 1-.424.92h.563v1.816h-.563v1.263c0 .095.032.147.102.147h.182c.043 0 .08-.031.102-.094.027-.074.043-.285.054-.632l.494.147c-.038.521-.097.832-.183.932-.086.095-.21.142-.376.142h-.44c-.3 0-.451-.179-.451-.531v-1.374h-.338c-.06.92-.392 1.59-.994 2.005l-.3-.479c.461-.3.724-.81.778-1.526h-.478V18.11zm1.901 1.332v-.847h-1.385v.847h1.385zm-3.974-1.047h.72v-.59c-.204.026-.409.053-.623.074l-.113-.505a8.332 8.332 0 0 0 1.718-.306l.2.506a9.68 9.68 0 0 1-.645.147v.674h.607v.531h-.607v.242c.241.242.483.505.73.795l-.317.468a15.937 15.937 0 0 0-.413-.673v2.105h-.537v-2.048c-.167.4-.37.764-.613 1.1L21 20.273c.365-.4.64-.847.811-1.347h-.666v-.531z" fill="#FFF"/></g></g></svg>
